dist/intermediate-svg/sendComment.svg

<?xml version="1.0" encoding="utf-8"?><svg width="21" height="21" fill="none" xmlns="http://www.w3.org/2000/svg" viewBox="0 0 21 21"><path fill-rule="evenodd" clip-rule="evenodd" d="M1.44909 0.108368L20.3507 9.55916C21.0877 9.92768 21.0877 10.9795 20.3507 11.348L1.4491 20.7988C0.669166 21.1888 -0.201419 20.4633 0.0414507 19.6259L2.36509 11.6133V11.6377L10.6538 10.4536L2.36509 9.26949V9.29387L0.0414513 1.28132C-0.201419 0.44384 0.669164 -0.281596 1.44909 0.108368Z" fill="#BABABA"/></svg>

<?xml version="1.0" encoding="utf-8"?><svg width="21" height="21" fill="none" xmlns="http://www.w3.org/2000/svg" viewBox="0 0 21 21"><path fill-rule="evenodd" clip-rule="evenodd" d="M1.45.108l18.9 9.451a1 1 0 010 1.789l-18.9 9.45c-.78.39-1.651-.335-1.409-1.172l2.324-8.013v.025l8.289-1.184-8.289-1.185v.025L.041 1.28C-.2.444.67-.282 1.45.108z" fill="#BABABA"/></svg>
